chains/inclusive-layer/logo.svg

<svg xmlns="http://www.w3.org/2000/svg" width="512" height="512" fill="none"><path fill="#000" d="M0 0h512v512H0z"/><path fill="#fff" d="m195.603 110.956 142.163.002a8.393 8.393 0 0 1 8.393 8.393v147.847h45.703a8.394 8.394 0 0 1 8.388 8.092l.005.301v118.794a8.393 8.393 0 0 1-8.393 8.393H191.199a8.394 8.394 0 0 1-7.497-4.616l-78.065-53.695c-2.833-1.948-4.011-5.202-3.534-8.236l-.001-160.479a8.474 8.474 0 0 1 .564-4.608 8.416 8.416 0 0 1 4.514-4.688l79.769-54.974a8.396 8.396 0 0 1 8.654-.526Zm133.77 16.788-109.257-.001 57.311 39.419c3.538 2.433 4.495 6.903 2.869 10.438v156.069c1.625 3.532.671 7.999-2.862 10.434l-60.781 41.888 166.816.001V283.984h-45.703a8.393 8.393 0 0 1-8.388-8.092l-.005-.301V127.744ZM199.592 297.115v80.247l58.279-40.163-58.279-40.084Zm-16.786.722-57.614 39.707 57.614 39.627v-79.334Zm-63.917-107.369v131.035l63.917-44.051v-43.023l-63.917-43.961Zm144.619.116-63.916 44.05v42.107l63.916 43.961V190.584Zm-63.916-56.586v80.249l58.279-40.164-58.279-40.085Zm-16.786.723-57.613 39.707 57.613 39.625v-79.332Z"/></svg>

<svg width="512" height="512" viewBox="0 0 512 512" fill="none" xmlns="http://www.w3.org/2000/svg">
<rect width="512" height="512" fill="black"/>
<path d="M195.603 110.956L337.766 110.958C342.401 110.958 346.159 114.715 346.159 119.351V267.198H391.862C396.396 267.198 400.091 270.794 400.25 275.29L400.255 275.591V394.385C400.255 399.02 396.497 402.778 391.862 402.778H191.199C187.923 402.778 185.084 400.9 183.702 398.162L105.637 344.467C102.804 342.519 101.626 339.265 102.103 336.231L102.102 175.752C101.86 174.206 102.048 172.602 102.666 171.144C103.478 169.04 105.115 167.345 107.18 166.456L186.949 111.482C189.534 109.701 192.87 109.525 195.603 110.956ZM329.373 127.744L220.116 127.743L277.427 167.162C280.965 169.595 281.922 174.065 280.296 177.6L280.296 333.669C281.921 337.201 280.967 341.668 277.434 344.103L216.653 385.991L383.469 385.992V283.984H337.766C333.231 283.984 329.537 280.388 329.378 275.892L329.373 275.591V127.744ZM199.592 297.115V377.362L257.871 337.199L199.592 297.115ZM182.806 297.837L125.192 337.544L182.806 377.171V297.837ZM118.889 190.468V321.503L182.806 277.452V234.429L118.889 190.468ZM263.508 190.584L199.592 234.634V276.741L263.508 320.702V190.584ZM199.592 133.998V214.247L257.871 174.083L199.592 133.998ZM182.806 134.721L125.193 174.428L182.806 214.053V134.721Z" fill="white"/>
</svg>
